X: 39875
T: This Is My Love, Do You Like Her?
R: jig
M: 6/8
K: Adorian
|:B|A2A AGE c2B c2d|ege edB ~g3 g2e|def g2e dBA G2A|B2e d2B A2B c2:|
|:d|e2a age d2g ged|e2a aba gag g2e|def g2e dBA G2A|B2e d2B A2B:|

